X:3137
T: Schottis efter Knaft-Jonke
R: Schottis
S: Utlärd av Lina Kollberg
Z: Karin Arén
O: Västerbotten
M: 4/4
L: 1/8
K: D
|: vD>F A>c d2 (d>e) | d>B G>B T(B<A) A2 | A>c e<g f>a f<d |  e>g (e<c) d>A F<A | 
vD>F A>c d2 (d>e) | d>B G>B T(B<A) A2 | A>c e<g f>a f<d | e>g (e<c) d2 z2 :|:
v[DA]2 a2 [_E_B]2 g2 | A>f (3(fgf) (e2 e)>c | d>e =f<g a>g f<e | d>e =f<e [e2c2] [e2A2] | 
v[DA]2 a2 [_E_B]2 g2 | A>f f2 (e2 e)>c | d>e =f<g a>g f<e | d>e (3cBc d4 :| 
(:musicend:)

(:music:)
